!!!!SEGMENT: pl-kk--kk-i-38--010_lasso-orlando-di--quam-benignus-es.krn
!!!cenid: 16xx:1260
!!!COM: Lasso, Orlando di
!!!COM-rismid: pe506
!!!CDT: ~1532-1594/06/14
!!!CNT: French-Flemish
!!!OTL: Quam benignus es
!!!PDT:
!!!AGN: Sacred
!!!SMS-siglum: PL-Kk
!!!SMS-shelfmark: Kk.I.38
!!!SMS-shelfwork: 010 W
!!!SMS-variant:
!!!SMS-altvar:
!!!NIFC-rismid: 1001154396
!!!URL-scan: http://repozytorium.nifc.pl/skany/pl-kk-nut--i-38
!!!ONB-nifc: Lib. 2. Fol. 27. 2da parte (jeśli występuje), należy do utworu tytułowego
!!!key:
**kern	**text
*Iempty	*
*I"Baſso Ripieno.	*
*I'B rip	*
*clefF4	*
*k[]	*
*C:	*
*M2/1	*
*met(C|)	*
=1-	=1-
!LO:TX:t=P:problem=kreska pseudotaktowa	!
!LO:TX:a:t=Lib. 2. Fol. 27.	!
1r	.
1.E	Quàm
=2-	=2-
.	.
*2\right	*
2E\	be-
1BB	-ni-
=3-	=3-
!LO:TX:t=P:problem=kreska pseudotaktowa	!
1C	-gnus
!LO:TX:t=P:problem=kreska pseudotaktowa	!
0G	es,
=4-	=4-
.	.
1.C	quàm
=5-	=5-
.	.
2C/	be-
1GG	-ni-
=6-	=6-
1AA	-gn(us)
!LO:TX:t=P:problem=kreska pseudotaktowa	!
0E	es!
=7-	=7-
.	.
1r	.
=8-	=8-
*	*ij
1.A	Quàm
2AA/	be-
=9-	=9-
1D	-ni-
2C/	-gn(us)
!LO:TX:t=P:problem=kreska pseudotaktowa	!
2AA/	es
*	*Xij
=10-	=10-
*lig	*
1D	o
1G	.
*Xlig	*
=11-	=11-
2.G\	Do-
4GG/	-mi-
!LO:TX:t=P:problem=kreska pseudotaktowa	!
1D	-ne
=12-	=12-
0.AA	De-
=13-	=13-
.	.
*custos:C	*
!LO:TX:t=P:problem=kreska pseudotaktowa	!
1E	-us
!LO:LB:g=original	!
=14-	=14-
!LO:TX:t=P:problem=kreska pseudotaktowa	!
1r	.
1.C	om-
=15-	=15-
.	.
2GG/	-ni-
!LO:TX:t=P:problem=kreska pseudotaktowa	!
1GG	-b(us)
=16-	=16-
00r	.
=17-	=17-
.	.
=18-	=18-
!LO:TX:t=P:problem=kreska pseudotaktowa	!
1r	.
2r	.
1C/	om-
=19-	=19-
.	.
2GG/	-ni-
2GG,</	-b(us)
2G\	in
=20-	=20-
2.F\	Te
4E\	.
2D/	.
2C#X/	spe-
=21-	=21-
2D/	-ran-
2AA/	-ti-
!LO:TX:t=P:problem=kreska pseudotaktowa	!
1E	-bus
=22-	=22-
2r	.
2AA/	et
2D\	a-
2D\	-ni-
=23-	=23-
1D	-ma-
2.AA/	-bus
4BB/	.
=24-	=24-
!LO:TX:t=P:problem=kreska pseudotaktowa	!
1Cny	.
1GG,<	Te
=25-	=25-
1D	ti-
2.C/	-men-
4BB/	.
=26-	=26-
2AA/	.
2AA/	-ti-
*custos:G	*
!LO:TX:t=P:problem=kreska pseudotaktowa	!
0GG	-bus
!LO:LB:g=original	!
=27-	=27-
.	.
1G	Quan-
=28-	=28-
!LO:TX:t=P:problem=kreska pseudotaktowa	!
1E	-tum
1.C	bo-
=29-	=29-
.	.
2C/	-num
1C	eſt
=30-	=30-
(2AA/	in
2A\)	.
2E\	si-
1E\	-len-
=31-	=31-
.	.
2E\	-ti-
!LO:TX:t=P:problem=kreska pseudotaktowa	!
0E	-o
=32-	=32-
.	.
1.A	prae-
=33-	=33-
.	.
2AA/	-sto-
1D	-la-
=34-	=34-
!LO:TX:t=P:problem=kreska pseudotaktowa	!
1C	-ri
1r	.
=35-	=35-
1.AA	Sa-
2BB/	-lu-
=36-	=36-
2C/	-ta-
2D\	-re
1E	Tu-
=37-	=37-
!LO:TX:t=P:problem=kreska pseudotaktowa	!
1AA	-um!
1.A	Sa-
=38-	=38-
.	.
2G\	-lu-
2F\	-ta-
2E\	-re
=39-	=39-
1D	tu-
!LO:TX:t=P:problem=kreska pseudotaktowa	!
1AA	-um
!LO:LB:g=original	!
=40-	=40-
1C	Sa-
2C/	-lu-
2D/	-ta-
=41-	=41-
2E,<\	-re
2F\	Tu-
!LO:TX:t=P:problem=kreska pseudotaktowa	!
1E,<	-um!
=42-	=42-
1.A	Sa-
2G\	-lu-
=43-	=43-
2F\	-ta-
!LO:TX:t=P:problem=kreska pseudotaktowa	!
2E\	-re
1D	Tu-
=44-	=44-
0AAl;	-um.
=45||	=45||
*M2/1	*
*met(C|)	*
!LO:TX:a:B:t=2da parte	!
!LO:TX:t=P:problem=kreska pseudotaktowa	!
0r	.
=46-	=46-
0E	O
=47-	=47-
1C#X	be-
1D	-a-
=48-	=48-
2GG,</	-tum
1G	ho-
4F#X\	.
!LO:TX:t=P:problem=kreska pseudotaktowa	!
4E\	.
!LO:LB:g=original	!
=49-	=49-
2F#X\	.
2F#\	-mi-
!LO:TX:t=P:problem=kreska pseudotaktowa	!
1G	-nem!
=50-	=50-
00r	.
=51-	=51-
.	.
=52-	=52-
!LO:TX:t=P:problem=kreska pseudotaktowa	!
0r	.
=53-	=53-
0D	O
=54-	=54-
1BB	be-
1Cny	-a-
=55-	=55-
!LO:TX:t=P:problem=kreska pseudotaktowa	!
1Fny	-tum
2.F\	ho-
4E\	.
=56-	=56-
2D\	.
2D\	-mi-
!LO:TX:t=P:problem=kreska pseudotaktowa	!
1C	-nem!
=57-	=57-
00r	.
=58-	=58-
.	.
=59-	=59-
!LO:TX:t=P:problem=kreska pseudotaktowa	!
1r	.
1G	Cu-
=60-	=60-
2C/	-i
1F	Tu
!LO:TX:t=P:problem=kreska pseudotaktowa	!
2D\	pro-
=61-	=61-
2AA/	-te-
2C/	-ctor
!LO:TX:t=P:problem=kreska pseudotaktowa	!
1GG	es
=62-	=62-
2.D/	Do-
4C/	.
2BB/	.
2BB/	-mi-
=63-	=63-
!LO:TX:t=P:problem=kreska pseudotaktowa	!
1AA	-ne!
*custos:D	*
!LO:TX:t=P:problem=kreska pseudotaktowa	!
!LO:TX:a:t=1.	!
1r	.
!LO:LB:g=original	!
=64-	=64-
1D	Cu-
2GG/	-i
1C/	Tu
=65-	=65-
.	.
2AA/	Pro-
2A\	-te-
2A\	-ctor
=66-	=66-
!LO:TX:t=P:problem=kreska pseudotaktowa	!
1G	es
2.G\	Do-
4GG/	-mi-
=67-	=67-
!LO:TX:t=P:problem=kreska pseudotaktowa	!
1C	-ne!
0r	.
=68-	=68-
.	.
!LO:TX:t=P:problem=kreska pseudotaktowa	!
1r	.
=69-	=69-
1E	Spes
2AA/	e-
1F\	-jus
=70-	=70-
.	.
2D\	in
1A	Te
=71-	=71-
2E\	.
!LO:TX:t=P:problem=kreska pseudotaktowa	!
2F\	est
2.C/	Do-
4D/	.
=72-	=72-
2E\	.
2C/	-mi-
!LO:TX:t=P:problem=kreska pseudotaktowa	!
1GG	-ne.
=73-	=73-
!LO:TX:t=P:problem=kreska pseudotaktowa	!
0r	.
=74-	=74-
1AA	Spes
1C	e-
=75-	=75-
2GG/	-jus
1C	in
!LO:TX:t=P:problem=kreska pseudotaktowa	!
2C/	Te
!LO:LB:g=original	!
=76-	=76-
2C/	Do-
2D/	-mi-
2C/	-no
1F\	De-
=77-	=77-
.	.
!LO:TX:t=P:problem=kreska pseudotaktowa	!
2C/	-o
2D\	ip-
2GG/	.
=78-	=78-
!LO:TX:t=P:problem=kreska pseudotaktowa	!
0C	-ſius
=79-	=79-
00r	.
=80-	=80-
.	.
=81-	=81-
!LO:TX:t=P:problem=kreska pseudotaktowa	!
0r	.
=82-	=82-
2r	.
!LO:TX:t=P:problem=kreska pseudotaktowa	!
2GG/	qui
4C/	cae-
4D/	.
4E/	.
4F/	.
=83-	=83-
0G	.
=84-	=84-
!LO:TX:t=P:problem=kreska pseudotaktowa	!
0G	-lum
=85-	=85-
1G,<	et
1D	ter-
=86-	=86-
!LO:TX:t=P:problem=kreska pseudotaktowa	!
1AA	-ram
2r	.
2AA/	qui
=87-	=87-
(4A\	cae-
4G\	.
4A\	.
!LO:TX:t=P:problem=kreska pseudotaktowa	!
4B\)	.
2c\	.
2c\	-l(um)
=88-	=88-
1F	et
1C	ter-
=89-	=89-
!LO:TX:t=P:problem=kreska pseudotaktowa	!
1GG	-ram
1D	fe-
=90-	=90-
0AA	-ci-
=91-	=91-
0El;	-ſti.
==	==
*-	*-
!!!RDF**kern: < = below
!!!RDF**kern: l = terminal long
!!!AIN: 1 empty
!!!ENC: Andrzej Kubiczek
!!!END: 2021-07-30
!!!ENC: Anastazja Marusiak
!!!END: 2021-07-01
